!!!OTL: Der schwatzhafte Junggeselle 's waren einmol drei G'soellein,
!!!ARE: Europa, Osteuropa, Ungarn, Solymar
!!!YOR: 6, S. 280
!!    1959 aufgezeichnet
!!!SCT: Q0139J
!!!YEM: Copyright 1995, estate of Helmut Schaffrath.
**kern
*ICvox
*Ivox
*M2/4
*k[f#]
*G:
{8d
=1
6g
6f#
6e
=2
4d
4b
=3
4.cc
8dd
=4
4b
8r}
{8d
=5
6g
6f#
6e
=6
4d
4g
=7
4.cc
8dd
=8
4b
8r}
{8b
=9
8.b
16cc
8dd
8dd
=10
4.dd
8b
=11
8cc
8dd
8ee
8dd
=12
4cc
8r}
{8a
=13
8.cc
16cc
8cc
8cc
=14
4cc
8b
8a
=15
8.b
16cc
8dd
8cc
=16
4b
8r}
==
!!!AGN: Ballade, Indiskretion, verweigerter Beischlaf
!! Transkription mit Verzierungen, Betonungen, etc. 6 weitere
!!    Strophenvarianten abgedruckt. Nur erste Strophe kodiert.
!!    Perkussionston im zweiten Takt durch "richtigen" Ton ersetzt.
!!!ONB: ESAC (Essen Associative Code) Database: BALLADE
!!!AMT: simple duple
!!!AIN: vox
!!!EED: Helmut Schaffrath
!!!EEV: 1.0
*-
